X:4
T:Barbarini's Tambourine
M:2/4
L:1/8
Z:Alf Warnock - alf.warnock@rogers.com
K:D clef=treble
P:A
f/g/ [|: "D"ad dd|de ef|fe/f/ "G"g/f/e/d/|"A"eA Af/g/|
        "D"ad dd|de ef|"D"fe/f/ "G"g/f/e/d/ \
          |1 "A"e3 f/g/ :|2 "A"e3 c/d/ |]
P:B
[|:  "A"eA AA|A3d/e/|"Bm"fB BB|B3e/f/|
    "A/C#"gc cf/g/|"D"ad df/g/|"G"bg "A"c'a|"D"d'c'/b/ ag|
    "D" fe/d/ "A"ed/c/|"D"dc/B/ "G"AG|"D"Fd "A"Ec \
        |1 "D"D3 c/d/ :|2 "D"D3 f/g/ |]

